X:1
T:On Jordan's bank the Baptist's cry
T:mel.: Musikalisches Handbuch, 1690 tune:  Winchester New harm.: William Henry Monk, 1847
T:"Jordanis oras praevia" Words: Charles Coffin, 1736; st. 1-3 translated by John Chandler, 1837; st. 4-5 translator unknown.  
T:On Jordan's bank the Baptist's cry 
T:(Jordanis oras praevia)
C:mel.: Musikalisches Handbuch, 1690
C:tune:  Winchester New
C:harm.: William Henry Monk, 1847
Z:"Jordanis oras praevia"
Z:Words: Charles Coffin, 1736;
Z:st. 1-3 translated by John Chandler, 1837;
Z:st. 4-5 translator unknown.
%%score { ( 1 2 ) | ( 3 4 ) }
L:1/8
Q:1/4=80
M:4/4
K:Bb
V:1 treble nm="P1"
V:2 treble 
V:3 bass 
V:4 bass 
V:1
!mf!"^Andante" F2 | B2 F2 G2 G2 | F2 E2 D2 D2 | E2 D2 C2 F2 | F2 =E2 F2"^-""^-" F2 | %5
w: 1.|Jor- dan's bank, the|Bap- tist's cry an-|nounc- es that the|Lord is nigh; a|
w: 2.|cleansed be eve- ry|breast from sin; make|straight the way for|God with- in, pre|
w: 3.|thou art our sal-|va- tion, Lord, our|re- fuge and our|great re- ward; with-|
w: 4.|heal the sick stretch|out thine hand, and|bid the fal- len|sin- ner stand; shine|
w: 5.|praise, e- ter- nal|Son, to thee, whose|ad- vent doth thy|peo- ple free; whom|
"^-""^-""^-" B2 c2 d2 B2 | e2 d2 c2!f! d2 | B2 G2 F2 B2 | B2 A2 !fermata!B2 |] %9
w: 1. and heark- en,|for he brings glad|ti- dings from the|King of kings!|
w: 2. we in our|hearts a home where|such a migh- ty|Guest may come.|
w: 3. thy grace we|waste a- way like|flow'rs that with- er|and de- cay.|
w: 4. and let thy|light re- store earth's|own true love- li-|ness once more.|
w: 5. the Fa- ther|we a- dore and|Ho- ly Ghost for|e- ver- more.|
V:2
 D2 | F2 D2 E2 (ED) | C2 A,2 B,2 B,2 | B,2 B,2 C2 D2 | D2 C2 C2 F2 | F2 E2 D2 (GF) | E2 F2 F2 F2 | %7
 F2 E2 F2 D2 | G2 F2 F2 |] %9
V:3
 B,2 | B,2 B,2 B,2 E,2 | F,2 F,2 F,2 F,2 | G,2 F,G, A,2 A,2 | B,A, G,2 A,2 A,2 | B,2 G,A, B,2 B,2 | %6
 B,A, B,2 A,2 B,2 | B,2 B,2 B,2 B,2 | C2 C2 D2 |] %9
V:4
 B,,2 | D,2 B,,2 E,2 C,B,, | A,,2 F,,2 B,,2 B,,2 | G,,2 B,,2 [F,,F,]2 D,2 | %4
 B,,2 C,2 [F,,F,]2 F,E, | D,2 C,2 B,,2 E,D, | C,2 D,E, F,2 B,,2 | D,2 E,2 D,2 G,2 | %8
 E,2 F,2 !fermata!B,,2 |] %9

